src/components/00-materials/images-raw/Hospital.svg

<svg width="96" height="96" viewBox="0 0 96 96" fill="none" xmlns="http://www.w3.org/2000/svg">
<path d="M57 25H52V20C52 19.7348 51.8946 19.4804 51.7071 19.2929C51.5196 19.1054 51.2652 19 51 19H45C44.7348 19 44.4804 19.1054 44.2929 19.2929C44.1054 19.4804 44 19.7348 44 20V25H39C38.7348 25 38.4804 25.1054 38.2929 25.2929C38.1054 25.4804 38 25.7348 38 26V32C38 32.2652 38.1054 32.5196 38.2929 32.7071C38.4804 32.8946 38.7348 33 39 33H44V38C44 38.2652 44.1054 38.5196 44.2929 38.7071C44.4804 38.8946 44.7348 39 45 39H51C51.2652 39 51.5196 38.8946 51.7071 38.7071C51.8946 38.5196 52 38.2652 52 38V33H57C57.2652 33 57.5196 32.8946 57.7071 32.7071C57.8946 32.5196 58 32.2652 58 32V26C58 25.7348 57.8946 25.4804 57.7071 25.2929C57.5196 25.1054 57.2652 25 57 25Z" stroke="#00008F" stroke-width="2" stroke-linecap="round" stroke-linejoin="round"/>
<path d="M80 83H73M65 38H72C72.5304 38 73.0391 38.2107 73.4142 38.5858C73.7893 38.9609 74 39.4696 74 40V83H22V40C22 39.4696 22.2107 38.9609 22.5858 38.5858C22.9609 38.2107 23.4696 38 24 38H31V19.05C31.0017 18.3699 31.2344 17.7105 31.66 17.18L34.1 14.18C34.3753 13.8191 34.729 13.5254 35.1343 13.321C35.5397 13.1166 35.9861 13.0068 36.44 13H59.56C60.0098 13.0009 60.4536 13.1029 60.8587 13.2985C61.2637 13.4941 61.6196 13.7783 61.9 14.13L64.34 17.13C64.7765 17.6738 65.0098 18.3527 65 19.05V38ZM23 83H16H23Z" stroke="#00008F" stroke-width="2" stroke-linecap="round" stroke-linejoin="round"/>
<path d="M48 70V83M44 58H52V64H44V58ZM59 58H67V64H59V58ZM29 58H37V64H29V58ZM44 46H52V52H44V46ZM59 46H67V52H59V46ZM29 46H37V52H29V46ZM34 83V70H62V83H34Z" stroke="#00008F" stroke-width="2" stroke-linecap="round" stroke-linejoin="round"/>
</svg>

<svg width="96" height="96" viewBox="0 0 96 96" fill="none" xmlns="http://www.w3.org/2000/svg"><path d="M57 25h-5v-5a1 1 0 00-1-1h-6a1 1 0 00-1 1v5h-5a1 1 0 00-1 1v6a1 1 0 001 1h5v5a1 1 0 001 1h6a1 1 0 001-1v-5h5a1 1 0 001-1v-6a1 1 0 00-1-1z" stroke="#00008F" stroke-width="2" stroke-linecap="round" stroke-linejoin="round"/><path d="M80 83h-7m-8-45h7a2 2 0 012 2v43H22V40a2 2 0 012-2h7V19.05a3 3 0 01.66-1.87l2.44-3A3 3 0 0136.44 13h23.12a3 3 0 012.34 1.13l2.44 3a3 3 0 01.66 1.92V38zM23 83h-7 7z" stroke="#00008F" stroke-width="2" stroke-linecap="round" stroke-linejoin="round"/><path d="M48 70v13m-4-25h8v6h-8v-6zm15 0h8v6h-8v-6zm-30 0h8v6h-8v-6zm15-12h8v6h-8v-6zm15 0h8v6h-8v-6zm-30 0h8v6h-8v-6zm5 37V70h28v13H34z" stroke="#00008F" stroke-width="2" stroke-linecap="round" stroke-linejoin="round"/></svg>
